X:1
T:Title
%%score { 1 | 2 }
L:1/8
M:6/8
K:G
V:1 treble nm="Grand Piano"
V:2 bass 
V:1
 z3 z2[Q:1/4=100] [B,D] | [DB]2 [^C_B] [D=B]2 [Ec] | [DB]3 [B,G]2 [DG] | A2 G E2 G | D3- D2 D | %5
 F2 =F ^F2 G | [FA]2 [=F^G] [^FA]2 F | G2 F G2 A | B2 _B =B2 c | d2 [GB] [Gc]2 [Ge] | %10
 [Gd]3 [DGd]2 [EGc] | [DGB]2 [DGB] [CFA]2 [CDA] |[M:5/8] [B,DG]-[B,DG]- [B,DG]3 |[M:1/8] B | %14
[M:3/4] d2 d ^c2 c | d3 d2 B | [Fc]2 [Fc] [=FB]2 [FB] | [Fc]4- [Fc]D | [FA]2 [=F^G] [^FA]2 [=GB] | %19
 [Ac]2 [GB] [Ac]2 [FA] | B2 _B =B2 c | d2 ^c d2 d | [Ge]2 [Ge] [EG]2 [Ge] | [Gd]3 [DGd]2 [EGc] | %24
 [DGB]2 [DGB] [CFA]2 [CDA] |[M:5/8] [B,DG]-[B,DG]- [B,DG]3 |] %26
V:2
 z3 z2 [G,,G,] | [G,,G,]2 [G,,G,] [G,,G,]2 [G,,G,] | [G,,G,]3 [G,,G,]2 [B,,G,] | %3
 [C,E,C]2 [C,E,C] [C,G,C]2 [E,G,C] | [G,B,]3- [G,B,]2 [G,B,] | [D,A,D]2 [D,^G,D] [D,A,D]2 [D,B,D] | %6
 [D,C]2 [D,B,] [D,C]2 [D,A,D] | [G,B,D]2 [G,A,D] [G,B,D]2 [G,CD] | %8
 [G,DG]2 [G,^CG] [G,DG]2 [G,A,F] | [G,B,G]2[K:bass] [=F,D] [E,C]2 [C,C] | [G,B,]3 B,,2 C, | %11
 D,2 D, D,2 D, |[M:5/8] G,,-G,,- G,,3 |[M:1/8][K:treble] [G,DG] | %14
[M:3/4] [G,B,G]2 [G,B,G] [G,_B,G]2 [G,B,G] | [G,B,G]3 [G,B,G]2[K:bass] [G,D] | %16
 [D,A,]2 [D,A,] [D,^G,]2 [D,G,] | [D,A,]4- [D,A,][D,F,] | [D,D]2 [D,D] [D,D]2 [D,D] | %19
 [D,C]2 [D,D] [D,D]2 [D,D] | [G,DG]2 [G,^CG] [G,DG]2 [G,A,G] | %21
 [G,B,G]2 [G,_B,G] [G,=B,G]2 [G,B,G] | [C,C]2 [C,C] [C,G,]2 [C,C] | [G,B,]3 B,,2 C, | %24
 D,2 D, D,2 D, |[M:5/8] G,,-G,,- G,,3 |] %26

